images/icons/source/next-day-payouts.svg

<svg width="48" height="48" viewBox="0 0 48 48" version="1.1" xmlns="http://www.w3.org/2000/svg" xmlns:xlink="http://www.w3.org/1999/xlink" xmlns:figma="http://www.figma.com/figma/ns">
<title>next-day-payouts</title>
<desc>Created using Figma</desc>
<g id="Canvas" transform="translate(321 125)" figma:type="canvas">
<mask id="mask0_alpha" mask-type="alpha">
<path d="M -321 -125L -273 -125L -273 -77L -321 -77L -321 -125Z" fill="#FFFFFF"/>
</mask>
<g id="next-day-payouts" style="mix-blend-mode:normal;" mask="url(#mask0_alpha)" figma:type="frame">
<g id="Vector" style="mix-blend-mode:normal;" figma:type="vector">
<use xlink:href="#path0_fill" transform="translate(-317.964 -125)" fill="#3BB75E" style="mix-blend-mode:normal;"/>
<use xlink:href="#path1_fill" transform="translate(-317.964 -125)" fill="#3BB75E" style="mix-blend-mode:normal;"/>
<use xlink:href="#path2_fill" transform="translate(-317.964 -125)" fill="#3BB75E" style="mix-blend-mode:normal;"/>
<use xlink:href="#path3_fill" transform="translate(-317.964 -125)" fill="#3BB75E" style="mix-blend-mode:normal;"/>
<use xlink:href="#path4_fill" transform="translate(-317.964 -125)" fill="#3BB75E" style="mix-blend-mode:normal;"/>
<use xlink:href="#path5_fill" transform="translate(-317.964 -125)" fill="#3BB75E" style="mix-blend-mode:normal;"/>
<use xlink:href="#path6_fill" transform="translate(-317.964 -125)" fill="#3BB75E" style="mix-blend-mode:normal;"/>
<use xlink:href="#path7_fill" transform="translate(-317.964 -125)" fill="#3BB75E" style="mix-blend-mode:normal;"/>
</g>
</g>
</g>
<defs>
<path id="path0_fill" fill-rule="evenodd" d="M 29.7908 15.9612C 29.3072 15.9612 28.9152 15.5692 28.9152 15.0856C 28.9152 14.602 29.3072 14.21 29.7908 14.21L 40.9273 14.21C 41.4796 14.21 41.9273 14.6577 41.9273 15.21L 41.9273 39.369C 41.9273 44.8212 39.6404 48 34.1457 48C 28.9625 48 26.3641 44.9969 26.3641 39.369C 26.3641 39.369 26.3641 39.369 26.3641 39.369L 26.3641 2.75122C 26.3641 2.19894 25.9164 1.75122 25.3641 1.75122L 2.75122 1.75122C 2.19894 1.75122 1.75122 2.19894 1.75122 2.75122L 1.75122 39.3134C 1.75122 44.1745 3.71934 46.2488 8.70782 46.2488C 8.70782 46.2488 8.70782 46.2488 8.70782 46.2488C 11.9609 46.2488 22.3572 46.2488 28.8092 46.2488C 28.8092 46.2488 28.8092 46.2488 28.8092 46.2488C 29.0063 46.2488 29.7042 47.1295 31.0498 47.5405C 35.0866 48.7732 34.1457 48 34.1457 48C 33.8683 48 13.5088 48 8.70782 48C 8.70782 48 8.70782 48 8.70782 48C 2.731 48 0 45.1217 0 39.3134L 0 1C 0 0.447715 0.447715 0 1 0L 27.1153 0C 27.6676 0 28.1153 0.447715 28.1153 1L 28.1153 39.369C 28.1153 44.0815 29.9906 46.2488 34.1457 46.2488C 38.5257 46.2488 40.1761 43.9547 40.1761 39.369C 40.1761 39.369 40.1761 39.369 40.1761 39.369L 40.1761 16.9612C 40.1761 16.4089 39.7284 15.9612 39.1761 15.9612L 29.7908 15.9612Z"/>
<path id="path1_fill" fill-rule="evenodd" d="M 4.39081 34.1797C 4.39081 34.6632 4.78283 35.0553 5.26642 35.0553L 23.0525 35.0553C 23.5361 35.0553 23.9281 34.6632 23.9281 34.1797C 23.9281 33.6961 23.5361 33.304 23.0525 33.304L 5.26642 33.304C 4.78283 33.304 4.39081 33.6961 4.39081 34.1797Z"/>
<path id="path2_fill" fill-rule="evenodd" d="M 37.777 22.7854C 38.2606 22.7854 38.6526 22.3933 38.6526 21.9097C 38.6526 21.4262 38.2606 21.0341 37.777 21.0341L 29.873 21.0341C 29.3894 21.0341 28.9973 21.4262 28.9973 21.9097C 28.9973 22.3933 29.3894 22.7854 29.873 22.7854L 37.777 22.7854Z"/>
<path id="path3_fill" fill-rule="evenodd" d="M 37.777 28.0439C 38.2606 28.0439 38.6526 27.6519 38.6526 27.1683C 38.6526 26.6847 38.2606 26.2927 37.777 26.2927L 29.873 26.2927C 29.3894 26.2927 28.9973 26.6847 28.9973 27.1683C 28.9973 27.6519 29.3894 28.0439 29.873 28.0439L 37.777 28.0439Z"/>
<path id="path4_fill" fill-rule="evenodd" d="M 37.777 33.3024C 38.2606 33.3024 38.6526 32.9104 38.6526 32.4268C 38.6526 31.9432 38.2606 31.5512 37.777 31.5512L 29.873 31.5512C 29.3894 31.5512 28.9973 31.9432 28.9973 32.4268C 28.9973 32.9104 29.3894 33.3024 29.873 33.3024L 37.777 33.3024Z"/>
<path id="path5_fill" fill-rule="evenodd" d="M 37.777 38.561C 38.2606 38.561 38.6526 38.1689 38.6526 37.6854C 38.6526 37.2018 38.2606 36.8097 37.777 36.8097L 29.873 36.8097C 29.3894 36.8097 28.9973 37.2018 28.9973 37.6854C 28.9973 38.1689 29.3894 38.561 29.873 38.561L 37.777 38.561Z"/>
<path id="path6_fill" fill-rule="evenodd" d="M 23.0525 40.3138C 23.5361 40.3138 23.9281 39.9218 23.9281 39.4382C 23.9281 38.9546 23.5361 38.5626 23.0525 38.5626L 5.26642 38.5626C 4.78283 38.5626 4.39081 38.9546 4.39081 39.4382C 4.39081 39.9218 4.78283 40.3138 5.26642 40.3138L 23.0525 40.3138Z"/>
<path id="path7_fill" d="M 9.30565 24.364L 14.4177 18.982C 15.0057 18.358 15.4617 17.746 15.7857 17.146C 16.1097 16.546 16.2717 15.916 16.2717 15.256C 16.2717 14.536 16.0677 13.972 15.6597 13.564C 15.2637 13.156 14.6997 12.952 13.9677 12.952C 13.2117 12.952 12.5997 13.174 12.1317 13.618C 11.6757 14.062 11.3817 14.794 11.2497 15.814L 9.79165 15.814C 9.88765 14.542 10.2957 13.54 11.0157 12.808C 11.7477 12.064 12.7317 11.692 13.9677 11.692C 15.1677 11.692 16.1157 12.016 16.8117 12.664C 17.5077 13.312 17.8557 14.194 17.8557 15.31C 17.8557 16.102 17.6217 16.888 17.1537 17.668C 16.6857 18.436 16.0557 19.21 15.2637 19.99L 11.7177 23.446L 17.9277 23.446L 17.9277 24.724L 9.30565 24.724L 9.30565 24.364Z"/>
</defs>
</svg>

<svg width="48" height="48" viewBox="0 0 48 48" xmlns="http://www.w3.org/2000/svg" xmlns:xlink="http://www.w3.org/1999/xlink" xmlns:figma="http://www.figma.com/figma/ns">
    <title>
        next-day-payouts
    </title>
    <desc>
        Created using Figma
    </desc>
    <g transform="translate(321 125)" figma:type="canvas">
        <mask id="a">
            <path d="M-321-125h48v48h-48v-48z" fill="#FFF"/>
        </mask>
        <g style="mix-blend-mode:normal" mask="url(#a)" figma:type="frame">
            <g style="mix-blend-mode:normal" figma:type="vector" transform="translate(-317.964 -125)" fill="#3BB75E">
                <use xlink:href="#b" style="mix-blend-mode:normal"/>
                <use xlink:href="#c" style="mix-blend-mode:normal"/>
                <use xlink:href="#d" style="mix-blend-mode:normal"/>
                <use xlink:href="#e" style="mix-blend-mode:normal"/>
                <use xlink:href="#f" style="mix-blend-mode:normal"/>
                <use xlink:href="#g" style="mix-blend-mode:normal"/>
                <use xlink:href="#h" style="mix-blend-mode:normal"/>
                <use xlink:href="#i" style="mix-blend-mode:normal"/>
            </g>
        </g>
    </g>
    <defs>
        <path id="b" fill-rule="evenodd" d="M29.79 15.961a.876.876 0 1 1 0-1.751h11.137a1 1 0 0 1 1 1v24.159c0 5.452-2.287 8.631-7.781 8.631-5.184 0-7.782-3.003-7.782-8.631V2.751a1 1 0 0 0-1-1H2.751a1 1 0 0 0-1 1v36.562c0 4.861 1.968 6.936 6.957 6.936h20.101c.197 0 .895.88 2.24 1.291 4.038 1.233 3.097.46 3.097.46H8.708C2.73 48 0 45.122 0 39.313V1a1 1 0 0 1 1-1h26.115a1 1 0 0 1 1 1v38.369c0 4.712 1.876 6.88 6.03 6.88 4.38 0 6.031-2.294 6.031-6.88V16.961a1 1 0 0 0-1-1h-9.385z"/>
        <path id="c" fill-rule="evenodd" d="M4.39 34.18c0 .483.393.875.876.875h17.786a.876.876 0 0 0 0-1.751H5.266a.876.876 0 0 0-.875.876z"/>
        <path id="d" fill-rule="evenodd" d="M37.777 22.785a.876.876 0 0 0 0-1.75h-7.904a.876.876 0 0 0 0 1.75h7.904z"/>
        <path id="e" fill-rule="evenodd" d="M37.777 28.044a.876.876 0 1 0 0-1.751h-7.904a.876.876 0 1 0 0 1.75h7.904z"/>
        <path id="f" fill-rule="evenodd" d="M37.777 33.302a.876.876 0 1 0 0-1.75h-7.904a.876.876 0 1 0 0 1.75h7.904z"/>
        <path id="g" fill-rule="evenodd" d="M37.777 38.561a.876.876 0 0 0 0-1.751h-7.904a.876.876 0 0 0 0 1.751h7.904z"/>
        <path id="h" fill-rule="evenodd" d="M23.052 40.314a.876.876 0 1 0 0-1.751H5.266a.876.876 0 1 0 0 1.75h17.786z"/>
        <path id="i" d="M9.306 24.364l5.112-5.382c.588-.624 1.044-1.236 1.368-1.836.324-.6.486-1.23.486-1.89 0-.72-.204-1.284-.612-1.692-.396-.408-.96-.612-1.692-.612-.756 0-1.368.222-1.836.666-.456.444-.75 1.176-.882 2.196H9.792c.096-1.272.504-2.274 1.224-3.006.732-.744 1.716-1.116 2.952-1.116 1.2 0 2.148.324 2.844.972.696.648 1.044 1.53 1.044 2.646 0 .792-.234 1.578-.702 2.358-.468.768-1.098 1.542-1.89 2.322l-3.546 3.456h6.21v1.278H9.306v-.36z"/>
    </defs>
</svg>
